src/images/no-cover.svg

<svg width="360" height="201" viewBox="0 0 360 201" fill="none" xmlns="http://www.w3.org/2000/svg">
<rect width="360" height="201" fill="#E8E8E8"/>
<path d="M136.42 116.636C136.42 113.875 134.801 112.153 132.568 112.153C130.335 112.153 128.716 113.875 128.716 116.636C128.716 119.398 130.335 121.119 132.568 121.119C134.801 121.119 136.42 119.398 136.42 116.636ZM135.398 116.636C135.398 118.903 134.153 120.131 132.568 120.131C130.983 120.131 129.739 118.903 129.739 116.636C129.739 114.369 130.983 113.142 132.568 113.142C134.153 113.142 135.398 114.369 135.398 116.636ZM142.919 112C142.599 112.268 142.122 112.268 141.453 112.264C141.236 112.264 140.997 112.264 140.737 112.273C138.743 112.324 137.754 113.841 137.754 116.756V117.455C137.754 119.875 138.93 121.136 140.686 121.136C142.438 121.136 143.601 119.866 143.601 117.812C143.601 115.75 142.42 114.659 140.891 114.659C139.991 114.659 139.152 115.034 138.709 115.852H138.624C138.76 114.165 139.391 113.261 140.754 113.21C141.964 113.159 142.834 113.193 143.43 112.614L142.919 112ZM140.686 120.233C139.493 120.233 138.76 119.278 138.76 117.812C138.781 116.381 139.501 115.562 140.669 115.562C141.866 115.562 142.595 116.381 142.595 117.812C142.595 119.287 141.871 120.233 140.686 120.233ZM144.56 121H144.901C146.349 121 146.767 119.875 146.861 117.727L146.963 115.392H149.366V121H150.372V114.455H146.009L145.889 117.352C145.804 119.551 145.582 120.062 144.798 120.062H144.56V121ZM154.876 121.136C156.649 121.136 157.842 119.79 157.842 117.761C157.842 115.716 156.649 114.369 154.876 114.369C153.104 114.369 151.911 115.716 151.911 117.761C151.911 119.79 153.104 121.136 154.876 121.136ZM154.876 120.233C153.53 120.233 152.916 119.074 152.916 117.761C152.916 116.449 153.53 115.273 154.876 115.273C156.223 115.273 156.837 116.449 156.837 117.761C156.837 119.074 156.223 120.233 154.876 120.233ZM158.699 121H159.909L162.142 118.188H162.653V121H163.659V118.188H164.17L166.386 121H167.597L164.955 117.676L167.562 114.455H166.369L164.188 117.25H163.659V114.455H162.653V117.25H162.108L159.926 114.455H158.733L161.358 117.676L158.699 121ZM169.034 121H170.039V118.239H170.943L173.091 121H174.386L171.71 117.608L174.352 114.455H173.056L170.704 117.301H170.039V114.455H169.034V121ZM176.485 119.517V114.455H175.479V121H176.655L179.792 115.938V121H180.797V114.455H179.638L176.485 119.517ZM186.014 121H187.02V115.392H190.156V121H191.162V114.455H186.014V121ZM195.658 121.136C197.43 121.136 198.624 119.79 198.624 117.761C198.624 115.716 197.43 114.369 195.658 114.369C193.885 114.369 192.692 115.716 192.692 117.761C192.692 119.79 193.885 121.136 195.658 121.136ZM195.658 120.233C194.311 120.233 193.697 119.074 193.697 117.761C193.697 116.449 194.311 115.273 195.658 115.273C197.004 115.273 197.618 116.449 197.618 117.761C197.618 119.074 197.004 120.233 195.658 120.233ZM200.159 121H201.164V118.239H202.068L204.216 121H205.511L202.835 117.608L205.477 114.455H204.181L201.829 117.301H201.164V114.455H200.159V121ZM208.53 121.153C209.672 121.153 210.269 120.54 210.473 120.114H210.525V121H211.53V116.688C211.53 114.608 209.945 114.369 209.11 114.369C208.121 114.369 206.996 114.71 206.485 115.903L207.439 116.244C207.661 115.767 208.185 115.256 209.144 115.256C210.069 115.256 210.525 115.746 210.525 116.585V116.619C210.525 117.105 210.03 117.062 208.837 117.216C207.623 117.374 206.297 117.642 206.297 119.142C206.297 120.42 207.286 121.153 208.53 121.153ZM208.684 120.25C207.882 120.25 207.303 119.892 207.303 119.193C207.303 118.426 208.002 118.188 208.786 118.085C209.212 118.034 210.354 117.915 210.525 117.71V118.631C210.525 119.449 209.877 120.25 208.684 120.25ZM217.746 114.455H216.741V121H217.746V118.205H220.883V121H221.888V114.455H220.883V117.267H217.746V114.455ZM226.469 121.136C227.799 121.136 228.771 120.472 229.077 119.483L228.106 119.21C227.85 119.892 227.258 120.233 226.469 120.233C225.289 120.233 224.475 119.47 224.428 118.068H229.18V117.642C229.18 115.205 227.731 114.369 226.367 114.369C224.594 114.369 223.418 115.767 223.418 117.778C223.418 119.79 224.577 121.136 226.469 121.136ZM224.428 117.199C224.496 116.18 225.217 115.273 226.367 115.273C227.458 115.273 228.157 116.091 228.157 117.199H224.428ZM230.1 115.392H232.265V121H233.271V115.392H235.418V114.455H230.1V115.392Z" fill="black"/>
<path fill-rule="evenodd" clip-rule="evenodd" d="M198.603 68.7619H192.138H168.862H162.397C162.04 68.7619 161.75 69.0581 161.75 69.4244V76.7122V84V91.2878V98.5756C161.75 98.9419 162.04 99.2381 162.397 99.2381H168.862H192.138H198.603C198.96 99.2381 199.25 98.9419 199.25 98.5756V91.2878V84V76.7122V69.4244C199.25 69.0581 198.96 68.7619 198.603 68.7619Z" stroke="black" stroke-width="1.2" stroke-linecap="round" stroke-linejoin="round"/>
<path fill-rule="evenodd" clip-rule="evenodd" d="M185.456 84.3809L177.5 90.0952V78.6667L185.456 84.3809Z" stroke="black" stroke-width="1.2" stroke-linecap="round" stroke-linejoin="round"/>
<path d="M199.25 68.7619H191.75V76.3809H199.25V68.7619Z" stroke="black" stroke-width="1.2" stroke-linecap="round" stroke-linejoin="round"/>
<path d="M169.25 68.7619H161.75V76.3809H169.25V68.7619Z" stroke="black" stroke-width="1.2" stroke-linecap="round" stroke-linejoin="round"/>
<path d="M199.25 76.381H191.75V84H199.25V76.381Z" stroke="black" stroke-width="1.2" stroke-linecap="round" stroke-linejoin="round"/>
<path d="M169.25 76.381H161.75V84H169.25V76.381Z" stroke="black" stroke-width="1.2" stroke-linecap="round" stroke-linejoin="round"/>
<path d="M199.25 84H191.75V91.619H199.25V84Z" stroke="black" stroke-width="1.2" stroke-linecap="round" stroke-linejoin="round"/>
<path d="M169.25 84H161.75V91.619H169.25V84Z" stroke="black" stroke-width="1.2" stroke-linecap="round" stroke-linejoin="round"/>
<path d="M199.25 91.619H191.75V99.2381H199.25V91.619Z" stroke="black" stroke-width="1.2" stroke-linecap="round" stroke-linejoin="round"/>
<path d="M169.25 91.619H161.75V99.2381H169.25V91.619Z" stroke="black" stroke-width="1.2" stroke-linecap="round" stroke-linejoin="round"/>
<rect x="161.25" y="68.25" width="38.5" height="31.5" stroke="black" stroke-width="0.5"/>
</svg>

<svg width="360" height="201" fill="none" xmlns="http://www.w3.org/2000/svg"><path fill="#E8E8E8" d="M0 0h360v201H0z"/><path d="M136.42 116.64c0-2.77-1.62-4.49-3.85-4.49s-3.85 1.72-3.85 4.49c0 2.76 1.62 4.48 3.85 4.48s3.85-1.72 3.85-4.48zm-1.02 0c0 2.26-1.25 3.5-2.83 3.5-1.59 0-2.83-1.24-2.83-3.5 0-2.27 1.24-3.5 2.83-3.5 1.58 0 2.83 1.23 2.83 3.5zm7.52-4.64c-.32.27-.8.27-1.47.26l-.71.01c-2 .05-2.99 1.57-2.99 4.49v.7c0 2.42 1.18 3.68 2.94 3.68 1.75 0 2.91-1.27 2.91-3.33s-1.18-3.15-2.7-3.15c-.9 0-1.75.37-2.2 1.2h-.08c.14-1.7.77-2.6 2.13-2.65 1.21-.05 2.08-.02 2.68-.6l-.51-.61zm-2.23 8.23c-1.2 0-1.93-.95-1.93-2.42.02-1.43.74-2.25 1.9-2.25 1.2 0 1.94.82 1.94 2.25 0 1.48-.73 2.42-1.91 2.42zm3.87.77h.34c1.45 0 1.87-1.13 1.96-3.27l.1-2.34h2.4V121h1.01v-6.55h-4.36l-.12 2.9c-.09 2.2-.3 2.71-1.1 2.71h-.23v.94zm10.32.14c1.77 0 2.96-1.35 2.96-3.38 0-2.04-1.2-3.4-2.96-3.4-1.78 0-2.97 1.36-2.97 3.4 0 2.03 1.2 3.38 2.97 3.38zm0-.9c-1.35 0-1.96-1.17-1.96-2.48s.61-2.49 1.96-2.49c1.34 0 1.96 1.18 1.96 2.5 0 1.3-.62 2.46-1.96 2.46zm3.82.76h1.2l2.24-2.81h.51V121h1v-2.81h.52l2.22 2.81h1.2l-2.63-3.32 2.6-3.23h-1.2l-2.17 2.8h-.53v-2.8h-1v2.8h-.55l-2.18-2.8h-1.2l2.63 3.23-2.66 3.32zm10.33 0h1v-2.76h.91l2.15 2.76h1.3l-2.68-3.4 2.64-3.14h-1.3l-2.35 2.84h-.66v-2.84h-1V121zm7.46-1.48v-5.06h-1.01V121h1.18l3.13-5.06V121h1v-6.55h-1.15l-3.15 5.07zM186 121h1.01v-5.6h3.14v5.6h1v-6.55h-5.15V121zm9.65.14c1.77 0 2.96-1.35 2.96-3.38 0-2.04-1.19-3.4-2.96-3.4-1.78 0-2.97 1.36-2.97 3.4 0 2.03 1.2 3.38 2.97 3.38zm0-.9c-1.35 0-1.96-1.17-1.96-2.48s.61-2.49 1.96-2.49c1.34 0 1.96 1.18 1.96 2.5 0 1.3-.62 2.46-1.96 2.46zm4.5.76h1v-2.76h.9l2.16 2.76h1.3l-2.69-3.4 2.65-3.14h-1.3l-2.35 2.84h-.67v-2.84h-1V121zm8.37.15c1.14 0 1.74-.61 1.94-1.04h.06v.89h1v-4.31c0-2.08-1.59-2.32-2.42-2.32-.99 0-2.11.34-2.63 1.53l.96.34c.22-.47.75-.98 1.7-.98.93 0 1.39.49 1.39 1.32v.04c0 .48-.5.44-1.7.6-1.2.15-2.53.42-2.53 1.92 0 1.28.99 2.01 2.23 2.01zm.15-.9c-.8 0-1.38-.36-1.38-1.06 0-.76.7-1 1.49-1.1.42-.06 1.56-.17 1.74-.38v.92c0 .82-.65 1.62-1.85 1.62zm9.07-5.8h-1V121h1v-2.8h3.13v2.8h1v-6.55h-1v2.82h-3.13v-2.81zm8.72 6.69c1.33 0 2.3-.67 2.6-1.66l-.96-.27c-.26.68-.85 1.02-1.64 1.02-1.18 0-2-.76-2.04-2.16h4.75v-.43c0-2.44-1.45-3.27-2.81-3.27-1.78 0-2.95 1.4-2.95 3.4 0 2.02 1.16 3.37 3.05 3.37zm-2.04-3.94c.07-1.02.79-1.93 1.94-1.93 1.09 0 1.79.82 1.79 1.93h-3.73zm5.67-1.8h2.16v5.6h1.01v-5.6h2.15v-.95h-5.32v.94z" fill="#000"/><path clip-rule="evenodd" d="M198.6 68.76h-36.2c-.36 0-.65.3-.65.66v29.16c0 .36.29.66.65.66h36.2c.36 0 .65-.3.65-.66V69.42a.65.65 0 00-.65-.66z" stroke="#000" stroke-width="1.2" stroke-linecap="round" stroke-linejoin="round"/><path clip-rule="evenodd" d="M185.46 84.38l-7.96 5.72V78.67l7.96 5.71z" stroke="#000" stroke-width="1.2" stroke-linecap="round" stroke-linejoin="round"/><path d="M199.25 68.76h-7.5v7.62h7.5v-7.62zM169.25 68.76h-7.5v7.62h7.5v-7.62z" stroke="#000" stroke-width="1.2" stroke-linecap="round" stroke-linejoin="round"/><path d="M199.25 76.38h-7.5V84h7.5v-7.62zM169.25 76.38h-7.5V84h7.5v-7.62zM199.25 84h-7.5v7.62h7.5V84zM169.25 84h-7.5v7.62h7.5V84zM199.25 91.62h-7.5v7.62h7.5v-7.62zM169.25 91.62h-7.5v7.62h7.5v-7.62z" stroke="#000" stroke-width="1.2" stroke-linecap="round" stroke-linejoin="round"/><path stroke="#000" stroke-width=".5" d="M161.25 68.25h38.5v31.5h-38.5z"/></svg>
